src/images/thumbnails/part-1_ovr.svg

<svg version="1.1" id="Layer_1" xmlns="http://www.w3.org/2000/svg" xmlns:xlink="http://www.w3.org/1999/xlink" x="0px" y="0px"
	 width="100%" viewBox="0 0 635 635" enable-background="new 0 0 635 635" xml:space="preserve">
<path fill="#AEFFDA" opacity="1.000000" stroke="none" 
	d="
M296.000000,636.000000 
	C198.666687,636.000000 101.833336,635.976807 5.000169,636.095581 
	C1.576165,636.099792 0.903874,635.423706 0.905598,632.000000 
	C1.010829,423.000092 1.010812,214.000137 0.905631,5.000213 
	C0.903908,1.576990 1.575955,0.903862 4.999881,0.905586 
	C213.999786,1.010822 422.999756,1.010811 631.999634,0.905648 
	C635.422546,0.903926 636.096130,1.575577 636.094421,4.999767 
	C635.989136,213.999695 635.989197,422.999664 636.094360,631.999573 
	C636.096069,635.422363 635.424988,636.098877 632.000244,636.095398 
	C520.166931,635.979858 408.333466,636.000000 296.000000,636.000000 
z"/>
<path fill="#A5A5A5" opacity="1.000000" stroke="none" 
	d="
M308.542542,442.195862 
	C306.810242,441.927521 305.152496,443.432953 303.925995,440.967102 
	C294.405060,437.948944 286.938721,432.121033 279.864044,425.802063 
	C265.905975,413.334930 255.537796,398.241730 247.858139,381.225220 
	C246.413681,378.024597 245.676041,374.615051 244.323761,370.970825 
	C243.042770,367.352753 243.619202,364.007233 243.482285,360.701721 
	C242.944794,347.726807 243.853378,334.779388 244.686264,321.869232 
	C245.388168,310.989319 246.227371,300.086761 247.547775,289.241974 
	C247.953308,285.911194 249.405304,284.502594 252.866211,285.238953 
	C264.677643,287.751892 276.542236,290.008331 288.450439,292.005035 
	C298.892212,293.755890 309.451294,295.459534 319.988525,295.306152 
	C334.101166,295.100708 347.825043,291.597809 361.392120,287.733246 
	C367.783051,285.912811 374.076477,283.807465 380.398254,281.776855 
	C385.659668,280.086823 388.080750,281.607025 388.363983,287.075104 
	C388.655457,292.702698 388.957886,298.317566 389.380157,303.941925 
	C390.633789,320.639160 392.389557,337.250977 396.036194,353.609192 
	C396.804138,357.054199 397.300323,360.438965 396.818237,364.348633 
	C390.484589,394.547272 374.524719,417.982880 349.671417,435.216919 
	C337.387238,443.735138 323.565674,446.248352 308.542542,442.195862 
z"/>
<path fill="#1B1A1C" opacity="1.000000" stroke="none" 
	d="
M382.659088,195.733276 
	C383.910431,195.708923 384.735931,195.791840 385.770538,195.972260 
	C391.597656,197.263779 397.369293,197.267502 403.012970,198.414474 
	C409.113831,199.654373 414.706177,202.105774 420.281403,204.676819 
	C421.591919,205.281189 423.290771,205.899765 422.930084,207.803253 
	C422.614594,209.468140 421.061462,210.033920 419.598022,210.460938 
	C411.972015,212.685928 405.266602,216.459793 399.820648,222.193405 
	C402.224426,221.418167 404.729034,220.596298 407.406067,220.826706 
	C408.404022,220.912582 409.458984,221.142670 409.898712,222.179321 
	C410.399567,223.360107 409.385406,223.933502 408.703949,224.630341 
	C403.176025,230.283035 403.417114,230.188751 406.378662,237.419998 
	C411.535889,250.012375 417.079102,262.511353 418.269684,276.342377 
	C419.036407,285.249298 417.469940,293.938690 415.570068,302.507019 
	C411.790222,319.553680 406.423065,336.146851 400.148010,352.443939 
	C399.610260,353.840576 399.399475,355.796417 397.727570,355.848053 
	C395.503479,355.916687 395.613983,353.520477 395.300323,352.108978 
	C391.765564,336.202545 390.286804,320.015594 389.026459,303.810120 
	C388.550018,297.683380 387.986176,291.566010 387.807678,285.406616 
	C387.661377,280.357513 386.724762,279.966553 381.921661,281.536652 
	C368.794037,285.828003 355.540771,289.595306 342.061279,292.696625 
	C326.011871,296.389282 310.091064,295.426605 294.074768,293.018005 
	C280.133514,290.921448 266.326233,288.110840 252.540100,285.210236 
	C249.138107,284.494446 248.235550,285.443726 247.928528,288.796082 
	C245.745789,312.629547 243.478607,336.450623 243.979019,360.430847 
	C244.006012,361.724792 244.289307,363.391632 242.782669,363.942078 
	C241.249222,364.502319 240.472534,363.174438 239.781265,361.957062 
	C232.056595,348.353821 224.480438,334.694519 218.171753,320.334686 
	C208.190186,297.614624 209.368042,274.746033 216.249191,251.611740 
	C218.418274,244.319244 221.531723,237.621017 226.817154,232.036133 
	C228.082397,230.699234 228.843994,229.040863 229.446930,227.270248 
	C230.085938,225.393814 230.172623,222.660324 233.650757,224.802231 
	C235.616623,226.012817 235.802765,223.529816 236.404861,222.302353 
	C236.982742,221.124283 237.328308,219.578629 239.002533,219.663208 
	C240.754059,219.751694 240.897034,221.226730 241.011917,222.597610 
	C241.082062,223.434662 241.183548,224.369919 242.110443,224.633957 
	C243.328857,224.981049 243.853973,223.967636 244.386002,223.134018 
	C244.743820,222.573349 244.990891,221.945908 245.335678,221.375732 
	C246.116409,220.084579 246.952805,218.517731 248.712097,219.061005 
	C250.255356,219.537567 249.907166,221.244919 250.005524,222.539764 
	C250.081879,223.545319 250.094910,224.562088 251.571655,224.923309 
	C252.642075,224.353485 253.351883,223.922852 254.369446,223.435684 
	C257.133057,223.377640 259.017181,222.238815 260.785522,220.164215 
	C262.345215,219.103455 263.679749,218.300232 265.348846,217.443802 
	C271.514343,216.014709 276.415710,212.622177 281.749390,209.681961 
	C281.955444,209.046310 282.184052,208.856323 282.732178,208.806396 
	C283.143616,209.266388 283.433258,209.332718 283.706451,208.810104 
	C283.598511,208.536453 283.710419,208.514313 283.665833,208.549911 
	C291.911377,206.906570 299.394928,202.722595 307.689514,200.977798 
	C318.315063,198.742676 329.028870,197.254440 339.767181,195.706757 
	C348.886810,194.392334 357.916870,195.396927 366.972778,194.731430 
	C371.969849,194.364197 377.098938,195.917923 382.659088,195.733276 
z"/>
<path fill="#111413" opacity="1.000000" stroke="none" 
	d="
M251.660797,224.488281 
	C251.897491,225.741272 252.245789,227.012970 251.040619,227.339752 
	C249.809753,227.673523 249.267075,226.573074 249.154694,225.553909 
	C248.955933,223.751266 248.935638,221.928955 248.807297,219.478195 
	C245.631607,222.176575 244.690369,225.851807 242.270386,228.601013 
	C239.544022,226.546417 240.459137,223.372147 239.483200,220.588882 
	C237.505905,221.308899 237.660858,223.171814 237.007492,224.484497 
	C236.296188,225.913574 236.593094,228.245850 234.712021,228.594940 
	C232.434540,229.017563 233.253494,225.931107 231.379639,225.038284 
	C230.618423,228.767792 228.685760,231.799240 226.255905,234.693893 
	C217.289764,245.375107 215.347504,258.673157 213.048569,271.757751 
	C209.636063,291.180603 213.765656,309.373901 222.388855,326.800232 
	C228.492706,339.135345 234.771027,351.369080 242.987473,363.051361 
	C242.987473,361.340363 243.039093,359.627594 242.979630,357.918701 
	C242.238358,336.614655 244.702469,315.465790 246.068008,294.264496 
	C246.141815,293.118530 246.600906,292.002716 246.794662,290.858337 
	C248.157089,282.811554 248.137146,282.870911 256.367462,284.601990 
	C274.872223,288.494110 293.423126,292.347809 312.285431,293.823517 
	C330.991760,295.286926 348.847687,290.163666 366.575043,284.952209 
	C372.477325,283.217102 378.427765,281.541473 384.131592,279.273682 
	C387.739410,277.839233 388.986908,279.214447 388.893127,282.254120 
	C388.697388,288.600861 389.533020,294.859039 390.039886,301.140747 
	C391.491791,319.135986 392.696564,337.173248 397.309387,355.316925 
	C399.583160,352.687195 399.908661,349.681396 400.904175,347.060242 
	C406.758362,331.646606 411.230957,315.820801 415.013855,299.771576 
	C419.274048,281.697510 416.561157,264.504364 409.349609,247.732635 
	C408.036499,244.678772 406.890717,241.553223 405.650452,238.467697 
	C401.974854,229.323639 401.971527,229.324982 409.226685,222.283203 
	C403.828644,222.087112 399.360291,224.464035 394.074097,226.398376 
	C397.079071,220.142532 399.284485,218.725845 422.601166,207.420639 
	C414.291107,203.029449 406.149170,199.884857 397.163452,198.958862 
	C393.470734,198.578308 389.611938,198.778732 386.097229,196.434219 
	C395.621857,195.331787 404.822662,197.302292 413.723755,200.799713 
	C418.788483,202.789749 423.856873,204.832886 429.651703,208.465607 
	C420.662659,211.459869 411.923920,212.826019 404.001007,219.588806 
	C410.323120,219.588806 415.135864,219.588806 420.740997,219.588806 
	C418.426666,223.085403 415.224915,223.055313 412.691528,224.050217 
	C404.584869,227.233810 403.749756,229.185150 407.083344,237.011505 
	C412.351532,249.379654 417.832611,261.767609 418.998322,275.342804 
	C420.360901,291.210388 415.866241,306.299347 411.604950,321.313782 
	C407.935638,334.242310 403.468475,346.924316 398.478851,359.410736 
	C397.605682,361.595825 396.966614,363.801300 396.874695,366.544525 
	C396.224457,367.067474 395.804474,366.888489 395.567017,366.008606 
	C396.878998,358.464630 393.981873,351.839691 392.792358,345.019196 
	C389.468658,325.961304 388.158783,306.716431 386.923096,287.458618 
	C386.509277,281.009338 386.623383,281.006409 380.415070,283.059570 
	C363.657349,288.601624 346.755035,293.592224 329.172729,295.780182 
	C313.912170,297.679230 298.948059,294.933990 284.017731,292.413361 
	C273.679291,290.667938 263.432220,288.381775 253.143188,286.343018 
	C251.252655,285.968414 249.304077,284.913330 248.971634,288.388123 
	C246.434723,314.906067 244.127762,341.429108 245.164764,368.115051 
	C245.203400,369.108795 245.381027,370.097198 245.588226,371.549805 
	C245.421265,372.122345 245.159973,372.233185 244.515976,372.157532 
	C239.797531,364.142578 235.343460,356.376831 231.151825,348.471893 
	C223.461609,333.969086 215.237473,319.628052 211.783340,303.359650 
	C207.322220,282.348419 210.990143,262.122650 218.691132,242.423508 
	C219.051575,241.501480 219.524887,240.604935 220.066269,239.775223 
	C224.515961,232.955734 230.859818,227.072754 229.856339,217.420471 
	C233.418549,219.064468 232.382980,222.492523 234.657761,223.994568 
	C236.654037,220.221298 236.597778,215.706650 239.292191,211.515839 
	C241.392761,215.641464 240.944611,219.855865 242.501068,223.738297 
	C245.835709,220.767075 246.310028,216.039078 249.997894,213.052185 
	C252.007538,216.663803 250.519073,220.513748 251.660797,224.488281 
z"/>
<path fill="#303B36" opacity="1.000000" stroke="none" 
	d="
M395.396881,365.954468 
	C395.857422,365.932220 396.102417,366.234100 396.564758,366.729309 
	C393.890381,387.494659 382.791199,403.862305 369.671265,419.061005 
	C360.214539,430.016113 349.105835,438.850006 334.917664,443.091339 
	C327.115753,445.423553 319.221497,445.536926 311.271301,444.019897 
	C310.195068,443.814575 308.843170,444.006165 308.324402,442.246155 
	C314.329651,441.941864 320.306091,443.668518 326.517426,442.823212 
	C339.957489,440.994202 351.053436,434.611816 360.649109,425.504150 
	C376.461731,410.495636 388.647125,393.120941 394.162537,371.658447 
	C394.615875,369.894379 394.846985,368.073212 395.396881,365.954468 
z"/>
<path fill="#303B36" opacity="1.000000" stroke="none" 
	d="
M244.117065,372.360229 
	C244.391617,371.969971 244.649979,371.968811 245.295456,371.989594 
	C254.789932,398.299011 270.341339,419.668274 293.855225,434.901825 
	C296.892456,436.869507 300.211853,438.401672 303.593781,440.370880 
	C301.669525,441.413818 299.922699,440.371979 298.138916,439.484741 
	C282.086914,431.501160 270.158813,418.936432 260.063843,404.543365 
	C253.212708,394.775238 247.171143,384.475525 244.117065,372.360229 
z"/>
<path fill="#111413" opacity="1.000000" stroke="none" 
	d="
M382.834259,195.245911 
	C379.880005,198.303757 376.018372,197.281784 372.668488,196.761200 
	C360.550110,194.877960 348.499695,196.137100 336.510895,197.280838 
	C326.837189,198.203751 317.273651,200.351624 307.688171,202.103424 
	C301.624756,203.211548 295.903961,205.484634 290.265778,207.912949 
	C288.374695,208.727432 286.524872,209.241074 284.052002,208.696609 
	C291.767548,204.159378 300.422089,201.153305 309.817169,199.368607 
	C310.527679,199.245590 310.932953,199.125656 311.670166,199.040939 
	C312.547333,198.848984 313.106567,198.669449 313.954956,198.567383 
	C315.100739,198.901184 315.670990,198.125229 316.724304,198.015076 
	C318.094421,197.728500 319.172455,197.464676 320.670074,197.229919 
	C321.507446,197.147827 321.931122,197.067017 322.683105,196.991867 
	C323.857788,196.790115 324.709259,196.609116 325.883850,196.497192 
	C327.338898,196.815125 328.236969,195.777679 329.691925,195.979050 
	C331.433594,195.711212 332.846100,195.456818 334.688354,195.270203 
	C335.854523,195.065857 336.618073,194.999344 337.684143,195.055450 
	C340.419586,194.785324 342.866241,194.496887 345.722534,194.291626 
	C348.808899,193.662186 351.537354,194.128479 354.610779,194.033447 
	C357.691650,193.938675 360.402283,193.829895 363.551025,193.840698 
	C366.066772,194.089233 368.156097,193.849182 370.560181,194.258652 
	C374.810791,194.034851 378.706848,194.227371 382.834259,195.245911 
z"/>
<path fill="#111413" opacity="1.000000" stroke="none" 
	d="
M281.435669,209.401733 
	C281.700378,209.987396 281.797272,211.000137 281.431000,211.211960 
	C276.563721,214.026566 272.138184,217.890045 265.877686,217.687408 
	C270.806427,214.745911 275.929474,212.101212 281.435669,209.401733 
z"/>
<path fill="#111413" opacity="1.000000" stroke="none" 
	d="
M260.670227,219.952759 
	C260.746552,223.770874 258.400513,224.595123 254.872040,223.678253 
	C256.561401,222.252380 258.445618,221.125595 260.670227,219.952759 
z"/>
<path fill="#1B1A1C" opacity="1.000000" stroke="none" 
	d="
M354.613861,193.978333 
	C352.378418,195.789825 349.548584,194.900070 346.457611,194.565018 
	C348.788849,193.380157 351.543396,194.091080 354.613861,193.978333 
z"/>
<path fill="#1B1A1C" opacity="1.000000" stroke="none" 
	d="
M370.583862,194.201080 
	C368.784729,195.368530 366.657715,195.260178 364.253967,194.215424 
	C366.084564,193.987671 368.179993,194.015045 370.583862,194.201080 
z"/>
<path fill="#1B1A1C" opacity="1.000000" stroke="none" 
	d="
M329.699432,195.889374 
	C329.198944,197.074005 328.071136,197.036560 326.548676,196.683426 
	C327.263885,196.315231 328.320801,196.064178 329.699432,195.889374 
z"/>
<path fill="#1B1A1C" opacity="1.000000" stroke="none" 
	d="
M337.736786,194.992188 
	C337.329559,195.932068 336.512451,196.106506 335.331757,195.514252 
	C335.912323,195.195541 336.706482,195.053085 337.736786,194.992188 
z"/>
<path fill="#1B1A1C" opacity="1.000000" stroke="none" 
	d="
M322.817505,196.876984 
	C322.647614,197.592484 322.189392,197.961487 321.264282,197.424240 
	C321.602722,197.100296 322.115723,196.941559 322.817505,196.876984 
z"/>
<path fill="#1B1A1C" opacity="1.000000" stroke="none" 
	d="
M316.726685,197.928162 
	C316.468079,198.721863 315.729980,198.955353 314.547607,198.732727 
	C314.975067,198.384537 315.705994,198.124268 316.726685,197.928162 
z"/>
<path fill="#1B1A1C" opacity="1.000000" stroke="none" 
	d="
M311.798920,198.954666 
	C311.662048,199.632599 311.220490,199.979477 310.316681,199.555786 
	C310.627625,199.235733 311.118683,199.058289 311.798920,198.954666 
z"/>
<path fill="#1B1A1C" opacity="1.000000" stroke="none" 
	d="
M250.375031,212.884460 
	C250.578598,213.025681 250.354462,213.069092 250.241241,213.055054 
	C250.347351,212.812164 250.579254,212.592865 250.769623,212.342056 
	C250.792633,212.311707 250.591507,212.111252 250.494263,211.989639 
	C250.386658,212.240845 250.279053,212.492050 250.375031,212.884460 
z"/>
<path fill="#111413" opacity="1.000000" stroke="none" 
	d="
M283.402100,208.532974 
	C283.544434,208.790390 283.871155,209.323364 283.069153,208.972610 
	C282.959656,208.835754 283.205719,208.529495 283.402100,208.532974 
z"/>
<path fill="#1B1A1C" opacity="1.000000" stroke="none" 
	d="
M344.658325,393.119385 
	C345.627930,392.747345 346.233734,392.446838 346.874512,392.283325 
	C348.050354,391.983307 349.557739,390.790283 350.171783,392.825470 
	C350.618805,394.307007 349.180481,394.705292 348.118347,395.155060 
	C329.932770,402.855621 311.864899,402.569702 293.923187,394.331573 
	C292.747223,393.791595 291.042847,393.319000 291.879333,391.570709 
	C292.754333,389.741913 294.230286,391.029083 295.307709,391.514771 
	C307.645752,397.076874 320.430481,399.070801 333.768494,396.254913 
	C337.334747,395.501953 340.799164,394.266571 344.658325,393.119385 
z"/>
<path fill="#9A9A9A" opacity="1.000000" stroke="none" 
	d="
M321.063171,213.714752 
	C302.340057,218.057831 284.299164,223.302124 265.917816,228.810928 
	C273.867126,222.004776 317.009003,205.882782 330.959290,204.759552 
	C354.054260,202.900024 377.142609,203.877335 401.398712,205.431610 
	C373.950043,208.162888 347.459778,208.390213 321.063171,213.714752 
z"/>
</svg>

<svg xmlns="http://www.w3.org/2000/svg" width="100%" viewBox="0 0 635 635" height="150" xmlns:v="https://vecta.io/nano"><path fill="#aeffda" d="M296 636c-97.333 0-194.167-.023-291 .096C1.576 636.1.904 635.424.906 632V5C.904 1.577 1.576.904 5 .906h627c3.423-.002 4.096.67 4.095 4.094v627c.002 3.423-.669 4.099-4.094 4.096L296 636z"/><path fill="#a5a5a5" d="M308.543 442.196c-1.732-.268-3.39 1.237-4.617-1.229-9.521-3.018-16.987-8.846-24.062-15.165-13.958-12.467-24.326-27.56-32.006-44.577-1.444-3.201-2.182-6.61-3.534-10.254-1.281-3.618-.705-6.964-.841-10.269-.537-12.975.371-25.922 1.204-38.832.702-10.88 1.541-21.782 2.862-32.627.406-3.331 1.858-4.739 5.318-4.003a832.77 832.77 0 0 0 35.584 6.766c10.442 1.751 21.001 3.454 31.538 3.301 14.113-.205 27.837-3.708 41.404-7.573 6.391-1.82 12.684-3.926 19.006-5.956 5.261-1.69 7.682-.17 7.966 5.298l1.016 16.867c1.254 16.697 3.009 33.309 6.656 49.667.768 3.445 1.264 6.83.782 10.739-6.334 30.199-22.294 53.634-47.147 70.868-12.284 8.518-26.106 11.031-41.129 6.979z"/><path fill="#1b1a1c" d="M382.659 195.733a14.71 14.71 0 0 1 3.111.239c5.827 1.292 11.599 1.295 17.242 2.442 6.101 1.24 11.693 3.691 17.268 6.262 1.311.604 3.009 1.223 2.649 3.126-.315 1.665-1.869 2.231-3.332 2.658-7.626 2.225-14.331 5.999-19.777 11.732 2.404-.775 4.908-1.597 7.585-1.367.998.086 2.053.316 2.493 1.353.501 1.181-.513 1.754-1.195 2.451-5.528 5.653-5.287 5.558-2.325 12.79 5.157 12.592 10.7 25.091 11.891 38.922.767 8.907-.8 17.596-2.7 26.165-3.78 17.047-9.147 33.64-15.422 49.937-.538 1.397-.749 3.352-2.42 3.404-2.224.069-2.114-2.328-2.427-3.739-3.535-15.906-5.014-32.093-6.274-48.299-.476-6.127-1.04-12.244-1.219-18.404-.146-5.049-1.083-5.44-5.886-3.87-13.128 4.291-26.381 8.059-39.86 11.16-16.049 3.693-31.97 2.73-47.987.321-13.941-2.097-27.749-4.907-41.535-7.808-3.402-.716-4.305.233-4.612 3.586-2.183 23.833-4.45 47.655-3.95 71.635.027 1.294.31 2.961-1.196 3.511-1.533.56-2.31-.768-3.001-1.985-7.725-13.603-15.301-27.263-21.61-41.622-9.982-22.72-8.804-45.589-1.923-68.723 2.169-7.292 5.283-13.991 10.568-19.576 1.265-1.337 2.027-2.995 2.63-4.766.639-1.876.726-4.61 4.204-2.468 1.966 1.211 2.152-1.272 2.754-2.5.578-1.178.923-2.724 2.598-2.639 1.752.088 1.895 1.564 2.009 2.934.07.837.172 1.772 1.099 2.036 1.218.347 1.744-.666 2.276-1.5.358-.561.605-1.188.95-1.758.781-1.291 1.617-2.858 3.376-2.315 1.543.477 1.195 2.184 1.293 3.479.076 1.006.089 2.022 1.566 2.384 1.07-.57 1.78-1 2.798-1.488 2.764-.058 4.648-1.197 6.416-3.271 1.56-1.061 2.894-1.864 4.563-2.72 6.165-1.429 11.067-4.822 16.401-7.762.206-.636.435-.826.983-.876.411.46.701.526.974.004-.108-.274.004-.296-.041-.26 8.246-1.643 15.729-5.827 24.024-7.572 10.626-2.235 21.339-3.723 32.078-5.271 9.12-1.314 18.15-.31 27.206-.975 4.997-.367 10.126 1.186 15.686 1.002z"/><path fill="#111413" d="M251.661 224.488c.237 1.253.585 2.525-.62 2.851-1.231.334-1.774-.767-1.886-1.786-.199-1.803-.219-3.625-.347-6.076-3.176 2.698-4.117 6.374-6.537 9.123-2.726-2.055-1.811-5.229-2.787-8.012-1.977.72-1.822 2.583-2.476 3.896-.711 1.429-.414 3.761-2.295 4.11-2.277.423-1.459-2.664-3.332-3.557-.761 3.73-2.694 6.761-5.124 9.656-8.966 10.681-10.908 23.979-13.207 37.064-3.413 19.423.717 37.616 9.34 55.042 6.104 12.335 12.382 24.569 20.599 36.251 0-1.711.052-3.424-.008-5.133-.741-21.304 1.723-42.453 3.088-63.654.074-1.146.533-2.262.727-3.406 1.362-8.047 1.342-7.987 9.573-6.256 18.505 3.892 37.056 7.746 55.918 9.222 18.706 1.463 36.562-3.66 54.29-8.871 5.902-1.735 11.853-3.411 17.557-5.679 3.608-1.434 4.855-.059 4.762 2.98-.196 6.347.64 12.605 1.147 18.887 1.452 17.995 2.657 36.033 7.27 54.176 2.274-2.63 2.599-5.636 3.595-8.257 5.854-15.414 10.327-31.239 14.11-47.289 4.26-18.074 1.547-35.267-5.664-52.039-1.313-3.054-2.459-6.179-3.699-9.265-3.676-9.144-3.679-9.143 3.576-16.184-5.398-.196-9.866 2.181-15.153 4.115 3.005-6.256 5.21-7.673 28.527-18.978-8.31-4.391-16.452-7.536-25.438-8.462-3.693-.381-7.552-.18-11.066-2.525 9.525-1.102 18.725.868 27.627 4.365 5.065 1.99 10.133 4.033 15.928 7.666-8.989 2.994-17.728 4.36-25.651 11.123h16.74c-2.314 3.497-5.516 3.467-8.049 4.461-8.107 3.184-8.942 5.135-5.608 12.961 5.268 12.368 10.749 24.756 11.915 38.331 1.363 15.868-3.132 30.957-7.393 45.971-3.669 12.929-8.136 25.611-13.126 38.097-.873 2.185-1.512 4.391-1.604 7.134-.65.523-1.07.344-1.308-.536 1.312-7.544-1.585-14.169-2.775-20.989-3.324-19.058-4.634-38.303-5.869-57.561-.414-6.449-.3-6.452-6.508-4.399-16.758 5.542-33.66 10.533-51.242 12.721-15.261 1.899-30.225-.846-45.155-3.367-10.338-1.745-20.586-4.032-30.875-6.07-1.891-.375-3.839-1.43-4.172 2.045-2.537 26.518-4.844 53.041-3.807 79.727.039.994.216 1.982.423 3.435-.167.573-.428.683-1.072.608-4.718-8.015-9.173-15.781-13.364-23.686-7.69-14.503-15.914-28.844-19.368-45.112-4.461-21.011-.793-41.237 6.908-60.936a14.65 14.65 0 0 1 1.375-2.648c4.45-6.819 10.794-12.702 9.79-22.355 3.562 1.644 2.527 5.072 4.801 6.574 1.996-3.773 1.94-8.288 4.634-12.479 2.101 4.126 1.652 8.34 3.209 12.222 3.335-2.971 3.809-7.699 7.497-10.686 2.01 3.612.521 7.462 1.663 11.436z"/><path d="M395.397 365.954c.461-.022.706.28 1.168.775-2.674 20.765-13.774 37.133-26.893 52.332-9.457 10.955-20.565 19.789-34.754 24.03-7.802 2.332-15.696 2.446-23.646.929-1.076-.205-2.428-.014-2.947-1.774 6.005-.304 11.982 1.422 18.193.577 13.44-1.829 24.536-8.211 34.132-17.319 15.813-15.009 27.998-32.383 33.513-53.846.453-1.764.684-3.585 1.234-5.704zm-151.28 6.406c.275-.39.533-.391 1.178-.371 9.494 26.309 25.046 47.679 48.56 62.912 3.037 1.968 6.357 3.5 9.739 5.469-1.924 1.043-3.671.001-5.455-.886-16.052-7.984-27.98-20.548-38.075-34.941-6.851-9.768-12.893-20.068-15.947-32.183z" fill="#303b36"/><path d="M382.834 195.246c-2.954 3.058-6.816 2.036-10.166 1.515-12.118-1.883-24.169-.624-36.158.52-9.674.923-19.237 3.071-28.823 4.823-6.063 1.108-11.784 3.381-17.422 5.81-1.891.814-3.741 1.328-6.214.784 7.716-4.537 16.37-7.543 25.765-9.328.711-.123 1.116-.243 1.853-.328.877-.192 1.436-.371 2.285-.474 1.146.334 1.716-.442 2.769-.552 1.37-.287 2.448-.55 3.946-.785.837-.082 1.261-.163 2.013-.238 1.175-.202 2.026-.383 3.201-.495 1.455.318 2.353-.72 3.808-.518 1.742-.268 3.154-.522 4.996-.709 1.166-.204 1.93-.271 2.996-.215l8.038-.764c3.086-.629 5.815-.163 8.888-.258l8.94-.193c2.516.249 4.605.008 7.009.418 4.251-.224 8.147-.031 12.274.987zm-101.398 14.156c.265.586.362 1.598-.005 1.81-4.867 2.815-9.293 6.678-15.553 6.475 4.929-2.941 10.052-5.586 15.558-8.286zm-20.766 10.551c.076 3.818-2.27 4.642-5.798 3.725 1.689-1.426 3.574-2.553 5.798-3.725z" fill="#111413"/><path d="M354.614 193.978c-2.235 1.811-5.065.922-8.156.587 2.331-1.185 5.086-.474 8.156-.587zm15.97.223c-1.799 1.167-3.926 1.059-6.33.014 1.831-.228 3.926-.2 6.33-.014zm-40.885 1.688c-.5 1.185-1.628 1.147-3.151.794.715-.368 1.772-.619 3.151-.794zm8.038-.897c-.407.94-1.224 1.114-2.405.522.581-.319 1.375-.461 2.405-.522zm-14.919 1.885c-.17.716-.628 1.085-1.553.547.338-.324.851-.483 1.553-.547zm-6.091 1.051c-.259.794-.997 1.027-2.179.805.427-.348 1.158-.608 2.179-.805zm-4.928 1.027c-.137.678-.578 1.025-1.482.601.311-.32.802-.497 1.482-.601zm-61.424 13.929c.204.141-.021.185-.134.171.106-.243.338-.462.528-.713.023-.03-.178-.231-.275-.352-.108.251-.215.502-.119.895z" fill="#1b1a1c"/><path fill="#111413" d="M283.402 208.533c.142.257.469.79-.333.44-.109-.137.137-.443.333-.44z"/><path fill="#1b1a1c" d="M344.658 393.119l2.216-.836c1.176-.3 2.683-1.493 3.297.542.447 1.482-.991 1.88-2.053 2.33-18.186 7.701-36.253 7.415-54.195-.823-1.176-.54-2.88-1.013-2.044-2.761.875-1.829 2.351-.542 3.428-.056 12.338 5.562 25.123 7.556 38.461 4.74 3.566-.753 7.031-1.988 10.89-3.136z"/><path fill="#9a9a9a" d="M321.063 213.715c-18.723 4.343-36.764 9.587-55.145 15.096 7.949-6.806 51.091-22.928 65.041-24.051 23.095-1.86 46.183-.882 70.439.672-27.449 2.731-53.939 2.959-80.336 8.283z"/></svg>
